symbols/web/escalator/materialsymbolssharp/escalator_wght100grad200_20px.svg

<svg xmlns="http://www.w3.org/2000/svg" height="20" width="20"><path d="M2.917 17.083V2.917h14.166v14.166Zm1.208-1.208h11.75V4.125H4.125Zm0 0V4.125v11.75ZM5.5 14.083h2.604l4.167-7.5H14.5v-.666h-2.604l-4.167 7.5H5.5Z"/></svg>

<svg xmlns="http://www.w3.org/2000/svg" height="20" width="20"><path d="M5.5 14.083H8.104L12.271 6.583H14.5V5.917H11.896L7.729 13.417H5.5ZM2.917 17.083V2.917H17.083V17.083ZM4.125 15.875H15.875V4.125H4.125ZM4.125 15.875V4.125V15.875Z"/></svg>
